X: 21732
M: 9/8
L: 1/8
K: A
f |\
ecA ABA cef | =g3 {fg}BGB d2f |\
ecA ABA ceg | a3 {ga}ecA e2f/g/ |\
agf ecA cef | =g3 {fg}BGB d2B |\
|: f |\
ecA acA ecA | B=GB gdB d2f |\
ecA acA ecA | {b}agf edc efg |\
agf ecA cef | {a}=gfg BGB d2B |\


